static/img/kroki/0e89339bdf7966d5684f3d66fcee59f6.svg

<?xml version="1.0" encoding="us-ascii" standalone="no"?><svg xmlns="http://www.w3.org/2000/svg" xmlns:xlink="http://www.w3.org/1999/xlink" contentStyleType="text/css" height="352px" preserveAspectRatio="none" style="width:805px;height:352px;" version="1.1" viewBox="0 0 805 352" width="805px" zoomAndPan="magnify"><defs/><g><!--class aws_cognito_group--><g id="elem_aws_cognito_group"><rect codeLine="23" fill="#3D176E" height="39.7891" id="aws_cognito_group" rx="2.5" ry="2.5" style="stroke:#000D19;stroke-width:0.5;" width="202" x="41.5" y="206.58"/><ellipse cx="56.5" cy="226.4745" fill="#ADD1B2" rx="11" ry="11" style="stroke:#181818;stroke-width:1.0;"/><path d="M59.4688,232.1152 Q58.8906,232.412 58.25,232.5527 Q57.6094,232.7089 56.9063,232.7089 Q54.4063,232.7089 53.0781,231.0683 Q51.7656,229.412 51.7656,226.287 Q51.7656,223.162 53.0781,221.5058 Q54.4063,219.8495 56.9063,219.8495 Q57.6094,219.8495 58.25,220.0058 Q58.9063,220.162 59.4688,220.4589 L59.4688,223.1777 Q58.8438,222.5995 58.25,222.3339 Q57.6563,222.0527 57.0313,222.0527 Q55.6875,222.0527 55,223.1308 Q54.3125,224.1933 54.3125,226.287 Q54.3125,228.3808 55,229.4589 Q55.6875,230.5214 57.0313,230.5214 Q57.6563,230.5214 58.25,230.2558 Q58.8438,229.9745 59.4688,229.3964 L59.4688,232.1152 Z " fill="#000000"/><text fill="#D9B8FF" font-family="Helvetica" font-size="17" lengthAdjust="spacing" textLength="160" x="75.5" y="232.3598">aws_cognito_group</text></g><!--class aws_cognito_user--><g id="elem_aws_cognito_user"><rect codeLine="26" fill="#3D176E" height="39.7891" id="aws_cognito_user" rx="2.5" ry="2.5" style="stroke:#000D19;stroke-width:0.5;" width="190" x="278.5" y="206.58"/><ellipse cx="293.5" cy="226.4745" fill="#ADD1B2" rx="11" ry="11" style="stroke:#181818;stroke-width:1.0;"/><path d="M296.4688,232.1152 Q295.8906,232.412 295.25,232.5527 Q294.6094,232.7089 293.9063,232.7089 Q291.4063,232.7089 290.0781,231.0683 Q288.7656,229.412 288.7656,226.287 Q288.7656,223.162 290.0781,221.5058 Q291.4063,219.8495 293.9063,219.8495 Q294.6094,219.8495 295.25,220.0058 Q295.9063,220.162 296.4688,220.4589 L296.4688,223.1777 Q295.8438,222.5995 295.25,222.3339 Q294.6563,222.0527 294.0313,222.0527 Q292.6875,222.0527 292,223.1308 Q291.3125,224.1933 291.3125,226.287 Q291.3125,228.3808 292,229.4589 Q292.6875,230.5214 294.0313,230.5214 Q294.6563,230.5214 295.25,230.2558 Q295.8438,229.9745 296.4688,229.3964 L296.4688,232.1152 Z " fill="#000000"/><text fill="#D9B8FF" font-family="Helvetica" font-size="17" lengthAdjust="spacing" textLength="148" x="312.5" y="232.3598">aws_cognito_user</text></g><!--class aws_cognito_user_pool--><g id="elem_aws_cognito_user_pool"><rect codeLine="29" fill="#3D176E" height="39.7891" id="aws_cognito_user_pool" rx="2.5" ry="2.5" style="stroke:#000D19;stroke-width:0.5;" width="234" x="321.5" y="106.79"/><ellipse cx="336.5" cy="126.6845" fill="#ADD1B2" rx="11" ry="11" style="stroke:#181818;stroke-width:1.0;"/><path d="M339.4688,132.3252 Q338.8906,132.622 338.25,132.7627 Q337.6094,132.9189 336.9063,132.9189 Q334.4063,132.9189 333.0781,131.2783 Q331.7656,129.622 331.7656,126.497 Q331.7656,123.372 333.0781,121.7158 Q334.4063,120.0595 336.9063,120.0595 Q337.6094,120.0595 338.25,120.2158 Q338.9063,120.372 339.4688,120.6689 L339.4688,123.3877 Q338.8438,122.8095 338.25,122.5439 Q337.6563,122.2627 337.0313,122.2627 Q335.6875,122.2627 335,123.3408 Q334.3125,124.4033 334.3125,126.497 Q334.3125,128.5908 335,129.6689 Q335.6875,130.7314 337.0313,130.7314 Q337.6563,130.7314 338.25,130.4658 Q338.8438,130.1845 339.4688,129.6064 L339.4688,132.3252 Z " fill="#000000"/><text fill="#D9B8FF" font-family="Helvetica" font-size="17" lengthAdjust="spacing" textLength="192" x="355.5" y="132.5698">aws_cognito_user_pool</text></g><!--class aws_kms_key--><g id="elem_aws_kms_key"><rect codeLine="32" fill="#3D176E" height="39.7891" id="aws_kms_key" rx="2.5" ry="2.5" style="stroke:#000D19;stroke-width:0.5;" width="158" x="524.5" y="306.37"/><ellipse cx="539.5" cy="326.2645" fill="#ADD1B2" rx="11" ry="11" style="stroke:#181818;stroke-width:1.0;"/><path d="M542.4688,331.9052 Q541.8906,332.202 541.25,332.3427 Q540.6094,332.4989 539.9063,332.4989 Q537.4063,332.4989 536.0781,330.8583 Q534.7656,329.202 534.7656,326.077 Q534.7656,322.952 536.0781,321.2958 Q537.4063,319.6395 539.9063,319.6395 Q540.6094,319.6395 541.25,319.7958 Q541.9063,319.952 542.4688,320.2489 L542.4688,322.9677 Q541.8438,322.3895 541.25,322.1239 Q540.6563,321.8427 540.0313,321.8427 Q538.6875,321.8427 538,322.9208 Q537.3125,323.9833 537.3125,326.077 Q537.3125,328.1708 538,329.2489 Q538.6875,330.3114 540.0313,330.3114 Q540.6563,330.3114 541.25,330.0458 Q541.8438,329.7645 542.4688,329.1864 L542.4688,331.9052 Z " fill="#000000"/><text fill="#D9B8FF" font-family="Helvetica" font-size="17" lengthAdjust="spacing" textLength="116" x="558.5" y="332.1498">aws_kms_key</text></g><!--class aws_lambda_function--><g id="elem_aws_lambda_function"><rect codeLine="35" fill="#3D176E" height="39.7891" id="aws_lambda_function" rx="2.5" ry="2.5" style="stroke:#000D19;stroke-width:0.5;" width="224" x="574.5" y="206.58"/><ellipse cx="589.5" cy="226.4745" fill="#ADD1B2" rx="11" ry="11" style="stroke:#181818;stroke-width:1.0;"/><path d="M592.4688,232.1152 Q591.8906,232.412 591.25,232.5527 Q590.6094,232.7089 589.9063,232.7089 Q587.4063,232.7089 586.0781,231.0683 Q584.7656,229.412 584.7656,226.287 Q584.7656,223.162 586.0781,221.5058 Q587.4063,219.8495 589.9063,219.8495 Q590.6094,219.8495 591.25,220.0058 Q591.9063,220.162 592.4688,220.4589 L592.4688,223.1777 Q591.8438,222.5995 591.25,222.3339 Q590.6563,222.0527 590.0313,222.0527 Q588.6875,222.0527 588,223.1308 Q587.3125,224.1933 587.3125,226.287 Q587.3125,228.3808 588,229.4589 Q588.6875,230.5214 590.0313,230.5214 Q590.6563,230.5214 591.25,230.2558 Q591.8438,229.9745 592.4688,229.3964 L592.4688,232.1152 Z " fill="#000000"/><text fill="#D9B8FF" font-family="Helvetica" font-size="17" lengthAdjust="spacing" textLength="182" x="608.5" y="232.3598">aws_lambda_function</text></g><!--class aws_opensearch_domain--><g id="elem_aws_opensearch_domain"><rect codeLine="38" fill="#3D176E" height="39.7891" id="aws_opensearch_domain" rx="2.5" ry="2.5" style="stroke:#000D19;stroke-width:0.5;" width="251" x="313" y="7"/><ellipse cx="328" cy="26.8945" fill="#ADD1B2" rx="11" ry="11" style="stroke:#181818;stroke-width:1.0;"/><path d="M330.9688,32.5352 Q330.3906,32.832 329.75,32.9727 Q329.1094,33.1289 328.4063,33.1289 Q325.9063,33.1289 324.5781,31.4883 Q323.2656,29.832 323.2656,26.707 Q323.2656,23.582 324.5781,21.9258 Q325.9063,20.2695 328.4063,20.2695 Q329.1094,20.2695 329.75,20.4258 Q330.4063,20.582 330.9688,20.8789 L330.9688,23.5977 Q330.3438,23.0195 329.75,22.7539 Q329.1563,22.4727 328.5313,22.4727 Q327.1875,22.4727 326.5,23.5508 Q325.8125,24.6133 325.8125,26.707 Q325.8125,28.8008 326.5,29.8789 Q327.1875,30.9414 328.5313,30.9414 Q329.1563,30.9414 329.75,30.6758 Q330.3438,30.3945 330.9688,29.8164 L330.9688,32.5352 Z " fill="#000000"/><text fill="#D9B8FF" font-family="Helvetica" font-size="17" lengthAdjust="spacing" textLength="209" x="347" y="32.7798">aws_opensearch_domain</text></g><!--class aws_sagemaker_workteam--><g id="elem_aws_sagemaker_workteam"><rect codeLine="41" fill="#3D176E" height="39.7891" id="aws_sagemaker_workteam" rx="2.5" ry="2.5" style="stroke:#000D19;stroke-width:0.5;" width="271" x="7" y="7"/><ellipse cx="22" cy="26.8945" fill="#ADD1B2" rx="11" ry="11" style="stroke:#181818;stroke-width:1.0;"/><path d="M24.9688,32.5352 Q24.3906,32.832 23.75,32.9727 Q23.1094,33.1289 22.4063,33.1289 Q19.9063,33.1289 18.5781,31.4883 Q17.2656,29.832 17.2656,26.707 Q17.2656,23.582 18.5781,21.9258 Q19.9063,20.2695 22.4063,20.2695 Q23.1094,20.2695 23.75,20.4258 Q24.4063,20.582 24.9688,20.8789 L24.9688,23.5977 Q24.3438,23.0195 23.75,22.7539 Q23.1563,22.4727 22.5313,22.4727 Q21.1875,22.4727 20.5,23.5508 Q19.8125,24.6133 19.8125,26.707 Q19.8125,28.8008 20.5,29.8789 Q21.1875,30.9414 22.5313,30.9414 Q23.1563,30.9414 23.75,30.6758 Q24.3438,30.3945 24.9688,29.8164 L24.9688,32.5352 Z " fill="#000000"/><text fill="#D9B8FF" font-family="Helvetica" font-size="17" lengthAdjust="spacing" textLength="229" x="41" y="32.7798">aws_sagemaker_workteam</text></g><!--class aws_waf_web_acl--><g id="elem_aws_waf_web_acl"><rect codeLine="44" fill="#3D176E" height="39.7891" id="aws_waf_web_acl" rx="2.5" ry="2.5" style="stroke:#000D19;stroke-width:0.5;" width="191" x="599" y="7"/><ellipse cx="614" cy="26.8945" fill="#ADD1B2" rx="11" ry="11" style="stroke:#181818;stroke-width:1.0;"/><path d="M616.9688,32.5352 Q616.3906,32.832 615.75,32.9727 Q615.1094,33.1289 614.4063,33.1289 Q611.9063,33.1289 610.5781,31.4883 Q609.2656,29.832 609.2656,26.707 Q609.2656,23.582 610.5781,21.9258 Q611.9063,20.2695 614.4063,20.2695 Q615.1094,20.2695 615.75,20.4258 Q616.4063,20.582 616.9688,20.8789 L616.9688,23.5977 Q616.3438,23.0195 615.75,22.7539 Q615.1563,22.4727 614.5313,22.4727 Q613.1875,22.4727 612.5,23.5508 Q611.8125,24.6133 611.8125,26.707 Q611.8125,28.8008 612.5,29.8789 Q613.1875,30.9414 614.5313,30.9414 Q615.1563,30.9414 615.75,30.6758 Q616.3438,30.3945 616.9688,29.8164 L616.9688,32.5352 Z " fill="#000000"/><text fill="#D9B8FF" font-family="Helvetica" font-size="17" lengthAdjust="spacing" textLength="149" x="633" y="32.7798">aws_waf_web_acl</text></g><!--link aws_cognito_user_pool to aws_cognito_group--><g id="link_aws_cognito_user_pool_aws_cognito_group"><path codeLine="47" d="M380.02,147.01 C328.21,164.12 258.6571,187.0978 206.8071,204.2278 " fill="none" id="aws_cognito_user_pool-to-aws_cognito_group" style="stroke:#1A83AF;stroke-width:2.0;"/><polygon fill="#1A83AF" points="201.11,206.11,210.9105,207.0848,205.8576,204.5415,208.4009,199.4886,201.11,206.11" style="stroke:#1A83AF;stroke-width:2.0;"/></g><!--link aws_cognito_user_pool to aws_cognito_user--><g id="link_aws_cognito_user_pool_aws_cognito_user"><path codeLine="48" d="M425.66,147.01 C414.26,164.15 401.0188,184.0614 389.6388,201.2014 " fill="none" id="aws_cognito_user_pool-to-aws_cognito_user" style="stroke:#1A83AF;stroke-width:2.0;"/><polygon fill="#1A83AF" points="386.32,206.2,394.6305,200.9147,389.0856,202.0345,387.9658,196.4896,386.32,206.2" style="stroke:#1A83AF;stroke-width:2.0;"/></g><!--link aws_cognito_user_pool to aws_kms_key--><g id="link_aws_cognito_user_pool_aws_kms_key"><path codeLine="49" d="M454.62,146.99 C486.17,184.76 551.8742,263.4446 583.4642,301.2746 " fill="none" id="aws_cognito_user_pool-to-aws_kms_key" style="stroke:#1A83AF;stroke-width:2.0;"/><polygon fill="#1A83AF" points="587.31,305.88,584.6116,296.408,584.1052,302.0421,578.471,301.5357,587.31,305.88" style="stroke:#1A83AF;stroke-width:2.0;"/></g><!--link aws_cognito_user_pool to aws_lambda_function--><g id="link_aws_cognito_user_pool_aws_lambda_function"><path codeLine="50" d="M487.5,147.01 C530.97,164.15 588.5787,186.8578 632.0187,203.9978 " fill="none" id="aws_cognito_user_pool-to-aws_lambda_function" style="stroke:#1A83AF;stroke-width:2.0;"/><polygon fill="#1A83AF" points="637.6,206.2,630.6962,199.1759,632.949,204.3648,627.76,206.6176,637.6,206.2" style="stroke:#1A83AF;stroke-width:2.0;"/></g><!--link aws_lambda_function to aws_kms_key--><g id="link_aws_lambda_function_aws_kms_key"><path codeLine="51" d="M670.1,246.8 C655.55,263.94 638.2814,284.2745 623.7414,301.4145 " fill="none" id="aws_lambda_function-to-aws_kms_key" style="stroke:#1A83AF;stroke-width:2.0;"/><polygon fill="#1A83AF" points="619.86,305.99,628.7324,301.7144,623.0945,302.1771,622.6318,296.5392,619.86,305.99" style="stroke:#1A83AF;stroke-width:2.0;"/></g><!--link aws_opensearch_domain to aws_cognito_user_pool--><g id="link_aws_opensearch_domain_aws_cognito_user_pool"><path codeLine="52" d="M438.5,47.22 C438.5,64.36 438.5,83.28 438.5,100.41 " fill="none" id="aws_opensearch_domain-to-aws_cognito_user_pool" style="stroke:#1A83AF;stroke-width:2.0;"/><polygon fill="#1A83AF" points="438.5,106.41,442.5,97.41,438.5,101.41,434.5,97.41,438.5,106.41" style="stroke:#1A83AF;stroke-width:2.0;"/></g><!--link aws_sagemaker_workteam to aws_cognito_group--><g id="link_aws_sagemaker_workteam_aws_cognito_group"><path codeLine="53" d="M142.5,47.2 C142.5,84.97 142.5,162.26 142.5,200.09 " fill="none" id="aws_sagemaker_workteam-to-aws_cognito_group" style="stroke:#1A83AF;stroke-width:2.0;"/><polygon fill="#1A83AF" points="142.5,206.09,146.5,197.09,142.5,201.09,138.5,197.09,142.5,206.09" style="stroke:#1A83AF;stroke-width:2.0;"/></g><!--link aws_sagemaker_workteam to aws_cognito_user_pool--><g id="link_aws_sagemaker_workteam_aws_cognito_user_pool"><path codeLine="54" d="M200.98,47.22 C252.79,64.33 322.3429,87.3078 374.1929,104.4378 " fill="none" id="aws_sagemaker_workteam-to-aws_cognito_user_pool" style="stroke:#1A83AF;stroke-width:2.0;"/><polygon fill="#1A83AF" points="379.89,106.32,372.5991,99.6986,375.1424,104.7515,370.0895,107.2948,379.89,106.32" style="stroke:#1A83AF;stroke-width:2.0;"/></g><!--link aws_waf_web_acl to aws_cognito_user_pool--><g id="link_aws_waf_web_acl_aws_cognito_user_pool"><path codeLine="55" d="M643.92,47.22 C599.04,64.36 539.4251,87.1392 494.5751,104.2692 " fill="none" id="aws_waf_web_acl-to-aws_cognito_user_pool" style="stroke:#1A83AF;stroke-width:2.0;"/><polygon fill="#1A83AF" points="488.97,106.41,498.8048,106.9355,493.6409,104.626,495.9504,99.4621,488.97,106.41" style="stroke:#1A83AF;stroke-width:2.0;"/></g><!--SRC=[bP51Jy9048Nl_HMRS2O1YG8N4oGXUY56l1dJJBkpTDFkJhExjK7ZVxS5D7KBfHnwcVVDlZUlYUJ8KELknnIg28qDR2fr3WOKMnX3vP8oCcmW18Z9r1TNfDr5O0qAsIDc7-Xa33xnciWurMWjksb83n2dMqE5veVddG5jAmcrQr3B3AnTE6TaL3XiXE7pQ2Q4J_gF3YPyFBt35aQ6epaYez68Z-S-Sj6gy-u_OYC_aOsRfQt9OIjcos9FTQQiYKR8rg6_-jcCpy2vr5jssvYz738PZURVV9C0fxAc1MIsQMCT6YItot7PkWhdCowc9-6dSt0GrzKnA6qOqrPBHs6DvUmh2BvFY8MjedPeOKwK-K2ggWzt_ZW35N48HQ5Z9qdxCkMeBOA9av2J0ja2B6nHGLgPbcHIXzN57b6224kCGeYFcKx77RuDnelPPB5w7zwtgxXsgKRwxXoRwOjxZGMdMkpqQ7VQUSO-Hd2cwnwjNRFrtw_vvtgi_000]--></g></svg>

<svg xmlns="http://www.w3.org/2000/svg" width="805" height="352" viewBox="0 0 805 352"><rect width="202" height="39.789" x="41.5" y="206.58" fill="#3D176E" rx="2.5" ry="2.5" style="stroke:#000d19;stroke-width:.5"/><circle cx="56.5" cy="226.475" r="11" fill="#ADD1B2" style="stroke:#181818;stroke-width:1"/><path d="M59.469 232.115q-.578.297-1.219.438-.64.156-1.344.156-2.5 0-3.828-1.64-1.312-1.657-1.312-4.782t1.312-4.781q1.328-1.656 3.828-1.656.703 0 1.344.156.656.156 1.219.453v2.719q-.625-.578-1.219-.844-.594-.281-1.219-.281-1.343 0-2.031 1.078-.687 1.062-.687 3.156t.687 3.172q.688 1.062 2.031 1.062.625 0 1.219-.265.594-.281 1.219-.86z"/><text x="75.5" y="232.36" fill="#D9B8FF" font-family="Helvetica" font-size="17" textLength="160">aws_cognito_group</text><rect width="190" height="39.789" x="278.5" y="206.58" fill="#3D176E" rx="2.5" ry="2.5" style="stroke:#000d19;stroke-width:.5"/><circle cx="293.5" cy="226.475" r="11" fill="#ADD1B2" style="stroke:#181818;stroke-width:1"/><path d="M296.469 232.115q-.578.297-1.219.438-.64.156-1.344.156-2.5 0-3.828-1.64-1.312-1.657-1.312-4.782t1.312-4.781q1.328-1.656 3.828-1.656.703 0 1.344.156.656.156 1.219.453v2.719q-.625-.578-1.219-.844-.594-.281-1.219-.281-1.344 0-2.031 1.078-.687 1.062-.687 3.156t.687 3.172q.688 1.062 2.031 1.062.625 0 1.219-.265.594-.281 1.219-.86z"/><text x="312.5" y="232.36" fill="#D9B8FF" font-family="Helvetica" font-size="17" textLength="148">aws_cognito_user</text><rect width="234" height="39.789" x="321.5" y="106.79" fill="#3D176E" rx="2.5" ry="2.5" style="stroke:#000d19;stroke-width:.5"/><circle cx="336.5" cy="126.684" r="11" fill="#ADD1B2" style="stroke:#181818;stroke-width:1"/><path d="M339.469 132.325q-.578.297-1.219.438-.64.156-1.344.156-2.5 0-3.828-1.64-1.312-1.657-1.312-4.782t1.312-4.781q1.328-1.656 3.828-1.656.703 0 1.344.156.656.156 1.219.453v2.719q-.625-.579-1.219-.844-.594-.281-1.219-.281-1.344 0-2.031 1.078-.687 1.062-.687 3.156t.687 3.172q.688 1.062 2.031 1.062.625 0 1.219-.265.594-.281 1.219-.86z"/><text x="355.5" y="132.57" fill="#D9B8FF" font-family="Helvetica" font-size="17" textLength="192">aws_cognito_user_pool</text><rect width="158" height="39.789" x="524.5" y="306.37" fill="#3D176E" rx="2.5" ry="2.5" style="stroke:#000d19;stroke-width:.5"/><circle cx="539.5" cy="326.264" r="11" fill="#ADD1B2" style="stroke:#181818;stroke-width:1"/><path d="M542.469 331.905q-.578.297-1.219.438-.64.156-1.344.156-2.5 0-3.828-1.64-1.312-1.657-1.312-4.782t1.312-4.781q1.328-1.656 3.828-1.656.703 0 1.344.156.656.156 1.219.453v2.719q-.625-.579-1.219-.844-.594-.281-1.219-.281-1.343 0-2.031 1.078-.687 1.062-.687 3.156t.687 3.172q.688 1.062 2.031 1.062.625 0 1.219-.265.594-.281 1.219-.86z"/><text x="558.5" y="332.15" fill="#D9B8FF" font-family="Helvetica" font-size="17" textLength="116">aws_kms_key</text><rect width="224" height="39.789" x="574.5" y="206.58" fill="#3D176E" rx="2.5" ry="2.5" style="stroke:#000d19;stroke-width:.5"/><circle cx="589.5" cy="226.475" r="11" fill="#ADD1B2" style="stroke:#181818;stroke-width:1"/><path d="M592.469 232.115q-.578.297-1.219.438-.64.156-1.344.156-2.5 0-3.828-1.64-1.312-1.657-1.312-4.782t1.312-4.781q1.328-1.656 3.828-1.656.703 0 1.344.156.656.156 1.219.453v2.719q-.625-.578-1.219-.844-.594-.281-1.219-.281-1.343 0-2.031 1.078-.687 1.062-.687 3.156t.687 3.172q.688 1.062 2.031 1.062.625 0 1.219-.265.594-.281 1.219-.86z"/><text x="608.5" y="232.36" fill="#D9B8FF" font-family="Helvetica" font-size="17" textLength="182">aws_lambda_function</text><rect width="251" height="39.789" x="313" y="7" fill="#3D176E" rx="2.5" ry="2.5" style="stroke:#000d19;stroke-width:.5"/><circle cx="328" cy="26.895" r="11" fill="#ADD1B2" style="stroke:#181818;stroke-width:1"/><path d="M330.969 32.535q-.578.297-1.219.438-.64.156-1.344.156-2.5 0-3.828-1.64-1.312-1.657-1.312-4.782t1.312-4.781q1.328-1.656 3.828-1.656.703 0 1.344.156.656.156 1.219.453v2.719q-.625-.578-1.219-.844-.594-.281-1.219-.281-1.344 0-2.031 1.078-.687 1.062-.687 3.156t.687 3.172q.688 1.062 2.031 1.062.625 0 1.219-.265.594-.281 1.219-.86z"/><text x="347" y="32.78" fill="#D9B8FF" font-family="Helvetica" font-size="17" textLength="209">aws_opensearch_domain</text><rect width="271" height="39.789" x="7" y="7" fill="#3D176E" rx="2.5" ry="2.5" style="stroke:#000d19;stroke-width:.5"/><circle cx="22" cy="26.895" r="11" fill="#ADD1B2" style="stroke:#181818;stroke-width:1"/><path d="M24.969 32.535q-.578.297-1.219.438-.64.156-1.344.156-2.5 0-3.828-1.64-1.312-1.657-1.312-4.782t1.312-4.781q1.328-1.656 3.828-1.656.703 0 1.344.156.656.156 1.219.453v2.719q-.625-.578-1.219-.844-.594-.281-1.219-.281-1.343 0-2.031 1.078-.687 1.062-.687 3.156t.687 3.172q.688 1.062 2.031 1.062.625 0 1.219-.265.594-.281 1.219-.86z"/><text x="41" y="32.78" fill="#D9B8FF" font-family="Helvetica" font-size="17" textLength="229">aws_sagemaker_workteam</text><rect width="191" height="39.789" x="599" y="7" fill="#3D176E" rx="2.5" ry="2.5" style="stroke:#000d19;stroke-width:.5"/><circle cx="614" cy="26.895" r="11" fill="#ADD1B2" style="stroke:#181818;stroke-width:1"/><path d="M616.969 32.535q-.578.297-1.219.438-.64.156-1.344.156-2.5 0-3.828-1.64-1.312-1.657-1.312-4.782t1.312-4.781q1.328-1.656 3.828-1.656.703 0 1.344.156.656.156 1.219.453v2.719q-.625-.578-1.219-.844-.594-.281-1.219-.281-1.343 0-2.031 1.078-.687 1.062-.687 3.156t.687 3.172q.688 1.062 2.031 1.062.625 0 1.219-.265.594-.281 1.219-.86z"/><text x="633" y="32.78" fill="#D9B8FF" font-family="Helvetica" font-size="17" textLength="149">aws_waf_web_acl</text><path fill="none" d="M380.02 147.01c-51.81 17.11-121.363 40.088-173.213 57.218" style="stroke:#1a83af;stroke-width:2"/><path fill="#1A83AF" d="m201.11 206.11 9.8.975-5.052-2.543 2.543-5.053z" style="stroke:#1a83af;stroke-width:2"/><path fill="none" d="M425.66 147.01a84739 84739 0 0 0-36.021 54.191" style="stroke:#1a83af;stroke-width:2"/><path fill="#1A83AF" d="m386.32 206.2 8.31-5.285-5.544 1.12-1.12-5.545z" style="stroke:#1a83af;stroke-width:2"/><path fill="none" d="M454.62 146.99c31.55 37.77 97.254 116.455 128.844 154.285" style="stroke:#1a83af;stroke-width:2"/><path fill="#1A83AF" d="m587.31 305.88-2.698-9.472-.507 5.634-5.634-.506z" style="stroke:#1a83af;stroke-width:2"/><path fill="none" d="M487.5 147.01c43.47 17.14 101.079 39.848 144.519 56.988" style="stroke:#1a83af;stroke-width:2"/><path fill="#1A83AF" d="m637.6 206.2-6.904-7.024 2.253 5.189-5.189 2.253z" style="stroke:#1a83af;stroke-width:2"/><path fill="none" d="M670.1 246.8c-14.55 17.14-31.819 37.474-46.359 54.614" style="stroke:#1a83af;stroke-width:2"/><path fill="#1A83AF" d="m619.86 305.99 8.872-4.276-5.637.463-.463-5.638z" style="stroke:#1a83af;stroke-width:2"/><path fill="none" d="M438.5 47.22v53.19" style="stroke:#1a83af;stroke-width:2"/><path fill="#1A83AF" d="m438.5 106.41 4-9-4 4-4-4z" style="stroke:#1a83af;stroke-width:2"/><path fill="none" d="M142.5 47.2v152.89" style="stroke:#1a83af;stroke-width:2"/><path fill="#1A83AF" d="m142.5 206.09 4-9-4 4-4-4z" style="stroke:#1a83af;stroke-width:2"/><path fill="none" d="M200.98 47.22c51.81 17.11 121.363 40.088 173.213 57.218" style="stroke:#1a83af;stroke-width:2"/><path fill="#1A83AF" d="m379.89 106.32-7.29-6.621 2.542 5.052-5.053 2.544z" style="stroke:#1a83af;stroke-width:2"/><path fill="none" d="M643.92 47.22c-44.88 17.14-104.495 39.92-149.345 57.05" style="stroke:#1a83af;stroke-width:2"/><path fill="#1A83AF" d="m488.97 106.41 9.835.526-5.164-2.31 2.31-5.164z" style="stroke:#1a83af;stroke-width:2"/></svg>
